packages/ffe-icons/icons/filled/md/pets.svg

<svg xmlns="http://www.w3.org/2000/svg" height="24" viewBox="0 -960 960 960" width="24"><path d="M180.022-485.001q-37.791 0-63.906-26.093-26.115-26.094-26.115-63.884 0-37.791 26.093-63.906 26.094-26.115 63.884-26.115 37.791 0 63.906 26.093 26.115 26.094 26.115 63.884 0 37.791-26.093 63.906-26.094 26.115-63.884 26.115Zm180-160q-37.791 0-63.906-26.093-26.115-26.094-26.115-63.884 0-37.791 26.093-63.906 26.094-26.115 63.884-26.115 37.791 0 63.906 26.093 26.115 26.094 26.115 63.884 0 37.791-26.093 63.906-26.094 26.115-63.884 26.115Zm240 0q-37.791 0-63.906-26.093-26.115-26.094-26.115-63.884 0-37.791 26.093-63.906 26.094-26.115 63.884-26.115 37.791 0 63.906 26.093 26.115 26.094 26.115 63.884 0 37.791-26.093 63.906-26.094 26.115-63.884 26.115Zm180 160q-37.791 0-63.906-26.093-26.115-26.094-26.115-63.884 0-37.791 26.093-63.906 26.094-26.115 63.884-26.115 37.791 0 63.906 26.093 26.115 26.094 26.115 63.884 0 37.791-26.093 63.906-26.094 26.115-63.884 26.115ZM266-85.001q-41.154 0-68.576-31.525-27.423-31.526-27.423-74.474 0-50.461 34.923-87.346 34.923-36.884 68.769-73.73 29-31.385 50.192-67.693 21.193-36.307 49.808-68.307 20.846-24.077 47.785-40.5 26.939-16.423 58.522-16.423 32.01 0 59.312 15.615 27.303 15.615 47.764 40.077 28 32 49.308 68.615 21.308 36.616 49.923 68.616 33.846 36.846 68.769 73.73 34.923 36.885 34.923 87.346 0 42.948-27.423 74.474Q735.154-85.001 694-85.001q-54 0-107-9t-107-9q-54 0-107 9t-107 9Z"/></svg>

<svg xmlns="http://www.w3.org/2000/svg" height="24" viewBox="0 -960 960 960" width="24"><path d="M180.02-485q-37.79 0-63.9-26.09Q90-537.19 90-574.98t26.09-63.9Q142.19-665 179.98-665t63.9 26.09Q270-612.81 270-575.02t-26.09 63.9Q217.81-485 180.02-485Zm180-160q-37.79 0-63.9-26.09Q270-697.19 270-734.98t26.09-63.9Q322.19-825 359.98-825t63.9 26.09Q450-772.81 450-735.02t-26.09 63.9Q397.81-645 360.02-645Zm240 0q-37.79 0-63.9-26.09Q510-697.19 510-734.98t26.09-63.9Q562.19-825 599.98-825t63.9 26.09Q690-772.81 690-735.02t-26.09 63.9Q637.81-645 600.02-645Zm180 160q-37.79 0-63.9-26.09Q690-537.19 690-574.98t26.09-63.9Q742.19-665 779.98-665t63.9 26.09Q870-612.81 870-575.02t-26.09 63.9Q817.81-485 780.02-485ZM266-85q-41.15 0-68.58-31.53Q170-148.05 170-191q0-50.46 34.92-87.35 34.93-36.88 68.77-73.73 29-31.38 50.2-67.69 21.19-36.31 49.8-68.31 20.85-24.07 47.79-40.5Q448.42-545 480-545q32.01 0 59.31 15.62 27.3 15.61 47.77 40.07 28 32 49.3 68.62 21.31 36.61 49.93 68.61 33.84 36.85 68.77 73.73Q790-241.46 790-191q0 42.95-27.42 74.47Q735.15-85 694-85q-54 0-107-9t-107-9q-54 0-107 9t-107 9Z"/></svg>
